common/src/main/resources/files/other/expui/xslt-filetype-overlay.svg

<!--
  - The MIT License (MIT)
  -
  - Copyright (c) 2015-2024 Elior "Mallowigi" Boukhobza
  -
  - Permission is hereby granted, free of charge, to any person obtaining a copy
  - of this software and associated documentation files (the "Software"), to deal
  - in the Software without restriction, including without limitation the rights
  - to use, copy, modify, merge, publish, distribute, sublicense, and/or sell
  - copies of the Software, and to permit persons to whom the Software is
  - furnished to do so, subject to the following conditions:
  -
  - The above copyright notice and this permission notice shall be included in all
  - copies or substantial portions of the Software.
  -
  - THE SOFTWARE IS PROVIDED "AS IS", WITHOUT WARRANTY OF ANY KIND, EXPRESS OR
  - IMPLIED, INCLUDING BUT NOT LIMITED TO THE WARRANTIES OF MERCHANTABILITY,
  - FITNESS FOR A PARTICULAR PURPOSE AND NONINFRINGEMENT. IN NO EVENT SHALL THE
  - AUTHORS OR COPYRIGHT HOLDERS BE LIABLE FOR ANY CLAIM, DAMAGES OR OTHER
  - LIABILITY, WHETHER IN AN ACTION OF CONTRACT, TORT OR OTHERWISE, ARISING FROM,
  - OUT OF OR IN CONNECTION WITH THE SOFTWARE OR THE USE OR OTHER DEALINGS IN THE
  - SOFTWARE.
  -->

<svg data-big="true" xmlns="http://www.w3.org/2000/svg" width="16px" height="16px" viewBox="0 0 16 16">
  <path fill="#C00000" fill-rule="evenodd"
        d="M6.786,1.05 L8.2735,1.05 L6.2845,3.957 L8.3585,7 L6.8285,7 L5.494,4.96 L4.151,7 L2.6635,7 L4.7375,3.974 L2.7485,1.05 L4.2785,1.05 L5.5195,2.9795 L6.786,1.05 Z M11.1975,7.085 C10.2965,7.085 9.387,6.7705 8.673,6.133 L9.4465,5.2065 C9.982,5.6485 10.543,5.929 11.223,5.929 C11.7585,5.929 12.0815,5.7165 12.0815,5.368 L12.0815,5.351 C12.0815,5.0195 11.8775,4.8495 10.883,4.5945 C9.6845,4.2885 8.911,3.957 8.911,2.7755 L8.911,2.7585 C8.911,1.679 9.778,0.965 10.9935,0.965 C11.8605,0.965 12.6,1.237 13.2035,1.7215 L12.5235,2.7075 C11.9965,2.342 11.478,2.121 10.9765,2.121 C10.475,2.121 10.2115,2.3505 10.2115,2.6395 L10.2115,2.6565 C10.2115,3.0475 10.4665,3.175 11.495,3.4385 C12.702,3.753 13.382,4.1865 13.382,5.2235 L13.382,5.2405 C13.382,6.422 12.481,7.085 11.1975,7.085 Z M4.014,15 L4.014,9.05 L5.323,9.05 L5.323,13.81 L8.2895,13.81 L8.2895,15 L4.014,15 Z M9.811,15 L9.811,10.257 L8.0005,10.257 L8.0005,9.05 L12.9305,9.05 L12.9305,10.257 L11.12,10.257 L11.12,15 L9.811,15 Z"/>
</svg>

<svg xmlns="http://www.w3.org/2000/svg" width="16" height="16" data-big="true"><path fill="#C00000" fill-rule="evenodd" d="M6.786 1.05h1.488l-1.99 2.907L8.359 7h-1.53L5.495 4.96 4.151 7H2.664l2.073-3.026L2.749 1.05h1.53L5.52 2.98zm4.412 6.035c-.902 0-1.811-.314-2.525-.952l.774-.926c.535.442 1.096.722 1.776.722.535 0 .858-.213.858-.561v-.017c0-.332-.203-.502-1.198-.756-1.198-.306-1.972-.638-1.972-1.82V2.76c0-1.08.867-1.794 2.082-1.794.867 0 1.607.272 2.21.757l-.68.986c-.527-.366-1.045-.587-1.546-.587s-.766.23-.766.519v.016c0 .391.255.519 1.284.782 1.207.315 1.887.748 1.887 1.785v.018c0 1.181-.901 1.844-2.184 1.844M4.013 15V9.05h1.309v4.76H8.29V15zm5.797 0v-4.743h-1.81V9.05h4.93v1.207H11.12V15z"/></svg>
